src/assets/imgs/shared/facebook-header.svg

<svg width="18" height="31" viewBox="0 0 18 31" fill="none" xmlns="http://www.w3.org/2000/svg">
<path d="M17 1H12.6399C8.63017 1 5.3601 4.25668 5.3601 8.25V12.5922H1V18.4078H5.3601V30H11.1995V18.4078H15.5596L17 12.5922H11.1606V8.25C11.1606 7.43583 11.8224 6.81551 12.601 6.81551H16.9611V1H17Z" stroke="white" stroke-width="2" stroke-linecap="round" stroke-linejoin="round"/>
</svg>

<svg xmlns="http://www.w3.org/2000/svg" width="18" height="31" fill="none"><path stroke="#fff" stroke-linecap="round" stroke-linejoin="round" stroke-width="2" d="M17 1h-4.4c-4 0-7.2 3.3-7.2 7.3v4.3H1v5.8h4.4V30h5.8V18.4h4.4l1.4-5.8h-5.8V8.3c0-.9.6-1.5 1.4-1.5H17V1h0Z"/></svg>
